miniprogram/assets/figma/grid-book-open-text.svg

<svg width="24" height="24" viewBox="0 0 24 24" fill="none" xmlns="http://www.w3.org/2000/svg">
<path d="M14.25 9C14.25 8.58579 14.5858 8.25 15 8.25H19C19.4142 8.25 19.75 8.58579 19.75 9C19.75 9.41421 19.4142 9.75 19 9.75H15C14.5858 9.75 14.25 9.41421 14.25 9Z" fill="#9CA3AF"/>
<path d="M15 11.25C14.5858 11.25 14.25 11.5858 14.25 12C14.25 12.4142 14.5858 12.75 15 12.75H17.5C17.9142 12.75 18.25 12.4142 18.25 12C18.25 11.5858 17.9142 11.25 17.5 11.25H15Z" fill="#9CA3AF"/>
<path fill-rule="evenodd" clip-rule="evenodd" d="M11.5265 21.0816L10.3204 20.1168C9.61902 19.5557 8.74758 19.25 7.84941 19.25H7.38104C5.97655 19.25 4.60349 19.6657 3.43488 20.4448C2.50095 21.0674 1.25 20.3979 1.25 19.2755V6.15248C1.25 5.49408 1.57905 4.87925 2.12687 4.51403L2.42391 4.31601C3.95558 3.29489 5.75524 2.75 7.59608 2.75C9.29734 2.75 10.9088 3.50297 12 4.80205C13.0912 3.50297 14.7027 2.75 16.4039 2.75C18.2448 2.75 20.0444 3.29489 21.5761 4.31601L21.8731 4.51403C22.4209 4.87925 22.75 5.49408 22.75 6.15248V19.2755C22.75 20.3979 21.499 21.0674 20.5651 20.4448C19.3965 19.6657 18.0234 19.25 16.619 19.25H16.1506C15.2524 19.25 14.381 19.5557 13.6796 20.1168L12.4735 21.0816C12.458 21.0943 12.442 21.1063 12.4254 21.1177C12.4083 21.1295 12.3907 21.1406 12.3725 21.151C12.3372 21.1712 12.3005 21.1884 12.2628 21.2024C12.2838 21.1946 12.3045 21.1858 12.3249 21.176L11.5265 21.0816ZM3.25596 5.56408C4.54123 4.70723 6.05137 4.25 7.59608 4.25C8.88766 4.25 10.1092 4.83711 10.9161 5.84567L11.25 6.26309V18.9395C10.2839 18.1695 9.08503 17.75 7.84941 17.75H7.38104C5.73902 17.75 4.13248 18.2193 2.75 19.1008V6.15248C2.75 5.99561 2.8284 5.84912 2.95892 5.76211L3.25596 5.56408ZM12.75 18.9395C13.7161 18.1695 14.915 17.75 16.1506 17.75H16.619C18.261 17.75 19.8675 18.2193 21.25 19.1008V6.15248C21.25 5.99561 21.1716 5.84912 21.0411 5.76211L20.744 5.56408C19.4588 4.70723 17.9486 4.25 16.4039 4.25C15.1123 4.25 13.8908 4.83711 13.0839 5.84567L12.75 6.26309V18.9395Z" fill="#9CA3AF"/>
<path d="M12.2628 21.2024C12.0746 21.2729 11.8622 21.2659 11.6751 21.176C11.6597 21.1686 11.6446 21.1607 11.6298 21.1523C11.8221 21.2615 12.0542 21.2806 12.2628 21.2024Z" fill="#9CA3AF"/>
</svg>

<svg xmlns="http://www.w3.org/2000/svg" width="24" height="24" fill="none" viewBox="0 0 24 24"><path fill="#9ca3af" d="M14.25 9a.75.75 0 0 1 .75-.75h4a.75.75 0 0 1 0 1.5h-4a.75.75 0 0 1-.75-.75m.75 2.25a.75.75 0 0 0 0 1.5h2.5a.75.75 0 0 0 0-1.5z"/><path fill="#9ca3af" fill-rule="evenodd" d="m11.527 21.082-1.207-.965a3.96 3.96 0 0 0-2.47-.867h-.47a7.1 7.1 0 0 0-3.946 1.195 1.405 1.405 0 0 1-2.185-1.17V6.153c0-.658.33-1.273.877-1.638l.297-.198A9.3 9.3 0 0 1 7.596 2.75c1.701 0 3.313.753 4.404 2.052a5.75 5.75 0 0 1 4.404-2.052c1.84 0 3.64.545 5.172 1.566l.297.198c.548.365.877.98.877 1.638v13.124a1.405 1.405 0 0 1-2.185 1.169 7.1 7.1 0 0 0-3.946-1.195h-.468c-.899 0-1.77.306-2.471.867l-1.207.965a.7.7 0 0 1-.148.094zM3.255 5.564a7.8 7.8 0 0 1 4.34-1.314 4.25 4.25 0 0 1 3.32 1.596l.334.417V18.94a5.46 5.46 0 0 0-3.4-1.189H7.38c-1.642 0-3.249.47-4.631 1.35V6.153a.47.47 0 0 1 .209-.39zM12.75 18.94a5.46 5.46 0 0 1 3.4-1.189h.469c1.642 0 3.249.47 4.631 1.35V6.153a.47.47 0 0 0-.209-.39l-.297-.198a7.8 7.8 0 0 0-4.34-1.314 4.25 4.25 0 0 0-3.32 1.596l-.334.417z" clip-rule="evenodd"/><path fill="#9ca3af" d="M12.263 21.202"/></svg>
